icons/desktop/16/svg/screenshare-slash-16.svg

<svg width="16" height="16" viewBox="0 0 16 16" fill="none" xmlns="http://www.w3.org/2000/svg">
<path fill-rule="evenodd" clip-rule="evenodd" d="M1.21973 0.719018C1.51273 0.426018 1.98825 0.426018 2.28125 0.719018L15.7812 14.219C16.074 14.5119 16.0738 14.9866 15.7812 15.2796C15.6353 15.4256 15.443 15.5003 15.251 15.5003C15.059 15.5003 14.8657 15.4266 14.7197 15.2796L13.1875 13.7473C11.4723 13.9145 9.7288 14.0012 8 14.0012C6.162 14.0012 4.30354 13.9051 2.47754 13.7161C1.06476 13.5689 0 12.3907 0 10.9759V5.02663C0.000172094 3.82049 0.768243 2.78993 1.86133 2.42117L1.21973 1.77956C0.927139 1.48658 0.926973 1.0119 1.21973 0.719018ZM2.61035 3.78152C1.97748 3.8465 1.50019 4.38083 1.5 5.02566V10.9749C1.5 11.6188 1.98592 12.1558 2.63184 12.2229C5.66103 12.5361 8.75617 12.5801 11.7988 12.3587L8.75 9.30984V10.4993C8.75 10.9135 8.41421 11.2493 8 11.2493C7.58579 11.2493 7.25 10.9135 7.25 10.4993V8.23464H5.47168C5.05194 8.23439 4.84191 7.72787 5.13867 7.43093L6.00488 6.56472L3.16699 3.72683C2.98104 3.74383 2.79549 3.76229 2.61035 3.78152Z" fill="black"/>
<path d="M5.36523 2.06863C8.08215 1.93564 10.8275 2.00543 13.5225 2.28542C14.9351 2.43264 15.9998 3.61001 16 5.02468V10.9739C16 11.4709 15.8638 11.9342 15.6348 12.3382L14.4639 11.1673C14.4749 11.1023 14.5 11.0419 14.5 10.9739V5.02468C14.4998 4.38088 14.014 3.84368 13.3682 3.77663C11.5932 3.59364 9.787 3.50027 8 3.50027C7.61005 3.50027 7.2181 3.52252 6.82715 3.53152L5.36523 2.06863Z" fill="black"/>
</svg>

<!-- This Source Code Form is subject to the terms of the Mozilla Public
   - License, v. 2.0. If a copy of the MPL was not distributed with this
   - file, You can obtain one at http://mozilla.org/MPL/2.0/. -->
<svg xmlns="http://www.w3.org/2000/svg" width="16" height="16" fill="context-fill" fill-opacity="context-fill-opacity" viewBox="0 0 16 16">
    <path fill-rule="evenodd" d="M1.22.719a.75.75 0 0 1 1.061 0l13.5 13.5a.75.75 0 0 1-1.061 1.06l-1.533-1.532A54 54 0 0 1 8 14.001c-1.838 0-3.696-.096-5.522-.285A2.753 2.753 0 0 1 0 10.976v-5.95C0 3.82.768 2.79 1.861 2.422L1.22 1.78a.75.75 0 0 1 0-1.061m1.39 3.063c-.633.064-1.11.599-1.11 1.244v5.949c0 .644.486 1.18 1.132 1.248 3.029.313 6.124.357 9.167.136L8.75 9.309v1.19a.75.75 0 0 1-1.5 0V8.235H5.472a.47.47 0 0 1-.333-.804l.866-.866-2.838-2.838q-.28.025-.557.055" clip-rule="evenodd" />
    <path d="M5.365 2.069a54 54 0 0 1 8.158.216A2.75 2.75 0 0 1 16 5.025v5.949c0 .497-.136.96-.365 1.364l-1.171-1.17c.01-.066.036-.126.036-.194v-5.95c0-.643-.486-1.18-1.132-1.247A53 53 0 0 0 8 3.5c-.39 0-.782.023-1.173.032z" />
</svg>
